src/icons/folder-icon.svg

<svg width="16" height="16" viewBox="0 0 16 16" fill="none" xmlns="http://www.w3.org/2000/svg">
<path d="M1 9V4.2C1 3.0799 1 2.51984 1.21799 2.09202C1.40973 1.71569 1.71569 1.40973 2.09202 1.21799C2.51984 1 3.0799 1 4.2 1H4.34315C4.95462 1 5.26036 1 5.54808 1.06908C5.80317 1.13032 6.04703 1.23133 6.27071 1.3684C6.523 1.523 6.73919 1.73919 7.17157 2.17157L7.76569 2.76569L7.76569 2.76569C7.85216 2.85216 7.8954 2.8954 7.94586 2.92632C7.99059 2.95373 8.03937 2.97394 8.09038 2.98618C8.14793 3 8.20908 3 8.33137 3H10C11.4001 3 12.1002 3 12.635 3.27248C13.1054 3.51217 13.4878 3.89462 13.7275 4.36502C14 4.8998 14 5.59987 14 7V9C14 10.4001 14 11.1002 13.7275 11.635C13.4878 12.1054 13.1054 12.4878 12.635 12.7275C12.1002 13 11.4001 13 10 13H5C3.59987 13 2.8998 13 2.36502 12.7275C1.89462 12.4878 1.51217 12.1054 1.27248 11.635C1 11.1002 1 10.4001 1 9Z" fill="#8080A0"/>
</svg>

<svg xmlns="http://www.w3.org/2000/svg" width="16" height="16" fill="none"><path fill="#8080A0" d="M1 9V4.2c0-1.12 0-1.68.218-2.108a2 2 0 0 1 .874-.874C2.52 1 3.08 1 4.2 1h.143c.612 0 .917 0 1.205.07a2.5 2.5 0 0 1 .723.298c.252.155.468.371.9.804l.595.594c.086.086.13.13.18.16a.5.5 0 0 0 .144.06C8.148 3 8.21 3 8.331 3H10c1.4 0 2.1 0 2.635.272a2.5 2.5 0 0 1 1.092 1.093C14 4.9 14 5.6 14 7v2c0 1.4 0 2.1-.273 2.635a2.5 2.5 0 0 1-1.092 1.092C12.1 13 11.4 13 10 13H5c-1.4 0-2.1 0-2.635-.273a2.5 2.5 0 0 1-1.093-1.092C1 11.1 1 10.4 1 9"/></svg>
